public/images/spiked-icon.svg

<svg width="24" height="24" viewBox="0 0 24 24" fill="none" xmlns="http://www.w3.org/2000/svg">
<path d="M11.567 1.75C11.7594 1.41667 12.2406 1.41667 12.433 1.75L21.0933 16.75C21.2857 17.0833 21.0452 17.5 20.6603 17.5H3.33975C2.95485 17.5 2.71428 17.0833 2.90673 16.75L11.567 1.75Z" stroke="#EB180B"/>
<path d="M15.1477 9.728V14H8.85169V9.728H9.85169V13.152H11.5077V9.728H12.5077V13.152H14.1477V9.728H15.1477Z" fill="black"/>
</svg>

<svg xmlns="http://www.w3.org/2000/svg" width="24" height="24" fill="none"><path stroke="#EB180B" d="M11.567 1.75a.5.5 0 0 1 .866 0l8.66 15a.5.5 0 0 1-.433.75H3.34a.5.5 0 0 1-.433-.75z"/><path fill="#000" d="M15.148 9.728V14H8.852V9.728h1v3.424h1.656V9.728h1v3.424h1.64V9.728z"/></svg>
